src/components/ToDo/images/delete.svg

<svg height="427pt" viewBox="-40 0 427 427.00131" width="427pt" xmlns="http://www.w3.org/2000/svg"><path d="m232.398438 154.703125c-5.523438 0-10 4.476563-10 10v189c0 5.519531 4.476562 10 10 10 5.523437 0 10-4.480469 10-10v-189c0-5.523437-4.476563-10-10-10zm0 0"/><path d="m114.398438 154.703125c-5.523438 0-10 4.476563-10 10v189c0 5.519531 4.476562 10 10 10 5.523437 0 10-4.480469 10-10v-189c0-5.523437-4.476563-10-10-10zm0 0"/><path d="m28.398438 127.121094v246.378906c0 14.5625 5.339843 28.238281 14.667968 38.050781 9.285156 9.839844 22.207032 15.425781 35.730469 15.449219h189.203125c13.527344-.023438 26.449219-5.609375 35.730469-15.449219 9.328125-9.8125 14.667969-23.488281 14.667969-38.050781v-246.378906c18.542968-4.921875 30.558593-22.835938 28.078124-41.863282-2.484374-19.023437-18.691406-33.253906-37.878906-33.257812h-51.199218v-12.5c.058593-10.511719-4.097657-20.605469-11.539063-28.03125-7.441406-7.421875-17.550781-11.5546875-28.0625-11.46875h-88.796875c-10.511719-.0859375-20.621094 4.046875-28.0625 11.46875-7.441406 7.425781-11.597656 17.519531-11.539062 28.03125v12.5h-51.199219c-19.1875.003906-35.394531 14.234375-37.878907 33.257812-2.480468 19.027344 9.535157 36.941407 28.078126 41.863282zm239.601562 279.878906h-189.203125c-17.097656 0-30.398437-14.6875-30.398437-33.5v-245.5h250v245.5c0 18.8125-13.300782 33.5-30.398438 33.5zm-158.601562-367.5c-.066407-5.207031 1.980468-10.21875 5.675781-13.894531 3.691406-3.675781 8.714843-5.695313 13.925781-5.605469h88.796875c5.210937-.089844 10.234375 1.929688 13.925781 5.605469 3.695313 3.671875 5.742188 8.6875 5.675782 13.894531v12.5h-128zm-71.199219 32.5h270.398437c9.941406 0 18 8.058594 18 18s-8.058594 18-18 18h-270.398437c-9.941407 0-18-8.058594-18-18s8.058593-18 18-18zm0 0"/><path d="m173.398438 154.703125c-5.523438 0-10 4.476563-10 10v189c0 5.519531 4.476562 10 10 10 5.523437 0 10-4.480469 10-10v-189c0-5.523437-4.476563-10-10-10zm0 0"/></svg>

<svg height="427pt" viewBox="-40 0 427 427.001" width="427pt" xmlns="http://www.w3.org/2000/svg"><path d="M232.398 154.703c-5.523 0-10 4.477-10 10v189c0 5.52 4.477 10 10 10 5.524 0 10-4.48 10-10v-189c0-5.523-4.476-10-10-10zm0 0M114.398 154.703c-5.523 0-10 4.477-10 10v189c0 5.52 4.477 10 10 10 5.524 0 10-4.48 10-10v-189c0-5.523-4.476-10-10-10zm0 0"/><path d="M28.398 127.121V373.5c0 14.563 5.34 28.238 14.668 38.05A49.246 49.246 0 0078.796 427H268a49.233 49.233 0 0035.73-15.45c9.329-9.812 14.668-23.487 14.668-38.05V127.121c18.543-4.922 30.559-22.836 28.079-41.863-2.485-19.024-18.692-33.254-37.88-33.258h-51.199V39.5a39.289 39.289 0 00-11.539-28.031A39.288 39.288 0 00217.797 0H129a39.288 39.288 0 00-28.063 11.469A39.289 39.289 0 0089.398 39.5V52H38.2C19.012 52.004 2.805 66.234.32 85.258c-2.48 19.027 9.535 36.941 28.078 41.863zM268 407H78.797c-17.098 0-30.399-14.688-30.399-33.5V128h250v245.5c0 18.813-13.3 33.5-30.398 33.5zM109.398 39.5a19.25 19.25 0 015.676-13.895A19.26 19.26 0 01129 20h88.797a19.26 19.26 0 0113.926 5.605 19.244 19.244 0 015.675 13.895V52h-128zM38.2 72h270.399c9.941 0 18 8.059 18 18s-8.059 18-18 18H38.199c-9.941 0-18-8.059-18-18s8.059-18 18-18zm0 0"/><path d="M173.398 154.703c-5.523 0-10 4.477-10 10v189c0 5.52 4.477 10 10 10 5.524 0 10-4.48 10-10v-189c0-5.523-4.476-10-10-10zm0 0"/></svg>
